Numix-GalliumOS/64/mimetypes/application-script-blank.svg

<svg xmlns="http://www.w3.org/2000/svg" xmlns:xlink="http://www.w3.org/1999/xlink" width="64px" height="64px" viewBox="0 0 64 64" version="1.1">
<g id="surface1">
<path style=" stroke:none;fill-rule:nonzero;fill:rgb(86.27451%,86.27451%,86.27451%);fill-opacity:1;" d="M 10.671875 0 C 9.296875 0 8 1.355469 8 2.789062 L 8 61.210938 C 8 62.566406 9.375 64 10.671875 64 L 53.328125 64 C 54.625 64 56 62.566406 56 61.210938 L 56 18 L 38 0 Z M 10.671875 0 "/>
<path style=" stroke:none;fill-rule:nonzero;fill:rgb(0%,0%,0%);fill-opacity:0.196078;" d="M 42 18 L 56 32 L 56 18 Z M 42 18 "/>
<path style=" stroke:none;fill-rule:nonzero;fill:rgb(100%,100%,100%);fill-opacity:0.392157;" d="M 38 0 L 55.984375 18 L 40.757812 18 C 39.410156 18 38 16.574219 38 15.226562 Z M 38 0 "/>
<path style=" stroke:none;fill-rule:nonzero;fill:rgb(32.941176%,32.941176%,32.941176%);fill-opacity:1;" d="M 23.90625 43.015625 C 23.90625 44.035156 24.183594 44.769531 24.726562 45.230469 C 25.292969 45.691406 26.113281 45.9375 27.191406 45.957031 L 27.191406 48.054688 C 25.382812 48.035156 23.980469 47.59375 22.996094 46.75 C 22 45.898438 21.507812 44.703125 21.507812 43.164062 L 21.507812 38.625 C 21.507812 37.585938 21.210938 36.847656 20.605469 36.40625 C 20.011719 35.957031 19.136719 35.730469 18 35.730469 L 18 33.613281 C 19.230469 33.59375 20.125 33.359375 20.675781 32.898438 C 21.230469 32.4375 21.507812 31.730469 21.507812 30.769531 L 21.507812 26.183594 C 21.507812 24.632812 22.019531 23.429688 23.046875 22.566406 C 24.070312 21.710938 25.457031 21.28125 27.191406 21.28125 L 27.191406 23.367188 C 24.996094 23.429688 23.90625 24.417969 23.90625 26.347656 L 23.90625 30.769531 C 23.90625 32.917969 22.839844 34.183594 20.71875 34.574219 L 20.71875 34.761719 C 22.839844 35.144531 23.90625 36.417969 23.90625 38.566406 L 23.90625 43.015625 "/>
<path style=" stroke:none;fill-rule:nonzero;fill:rgb(32.941176%,32.941176%,32.941176%);fill-opacity:1;" d="M 43.25 34.574219 C 41.128906 34.183594 40.0625 32.917969 40.0625 30.769531 L 40.0625 26.347656 C 40.0625 24.417969 38.984375 23.429688 36.820312 23.367188 L 36.820312 21.28125 C 38.574219 21.28125 39.949219 21.710938 40.953125 22.585938 C 41.957031 23.457031 42.460938 24.652344 42.460938 26.183594 L 42.460938 30.769531 C 42.460938 31.742188 42.738281 32.457031 43.300781 32.90625 C 43.867188 33.359375 44.769531 33.59375 46 33.613281 L 46 35.730469 C 44.839844 35.730469 43.957031 35.957031 43.363281 36.40625 C 42.757812 36.847656 42.460938 37.585938 42.460938 38.625 L 42.460938 43.164062 C 42.460938 44.691406 41.96875 45.878906 40.996094 46.730469 C 40.019531 47.59375 38.636719 48.035156 36.820312 48.054688 L 36.820312 45.957031 C 37.875 45.9375 38.6875 45.691406 39.242188 45.230469 C 39.785156 44.769531 40.0625 44.035156 40.0625 43.015625 L 40.0625 38.566406 C 40.0625 37.429688 40.328125 36.554688 40.851562 35.957031 C 41.375 35.359375 42.175781 34.957031 43.25 34.761719 L 43.25 34.574219 "/>
</g>
</svg>

<svg xmlns="http://www.w3.org/2000/svg" viewBox="0 0 64 64">
 <path d="m 10.672 0 c -1.375 0 -2.672 1.355 -2.672 2.789 l 0 58.42 c 0 1.355 1.375 2.789 2.672 2.789 l 42.656 0 c 1.297 0 2.672 -1.434 2.672 -2.789 l 0 -43.21 -18 -18 m -27.328 0" style="fill:#dcdcdc;fill-opacity:1;stroke:none;fill-rule:nonzero"/>
 <path d="m 42 18 14 14 0 -14 z m 0 0" style="fill:#000;fill-opacity:0.196;stroke:none;fill-rule:nonzero"/>
 <path d="m 38 0 17.984 18 -15.227 0 c -1.348 0 -2.758 -1.426 -2.758 -2.773 m 0 -15.227" style="fill:#fff;fill-opacity:0.392;stroke:none;fill-rule:nonzero"/>
 <path d="m 23.906 43.02 c 0 1.02 0.277 1.754 0.82 2.215 0.566 0.461 1.387 0.707 2.465 0.727 l 0 2.098 c -1.809 -0.02 -3.211 -0.461 -4.195 -1.305 -0.996 -0.852 -1.488 -2.047 -1.488 -3.586 l 0 -4.539 c 0 -1.039 -0.297 -1.777 -0.902 -2.219 c -0.594 -0.449 -1.469 -0.676 -2.605 -0.676 l 0 -2.117 c 1.23 -0.02 2.125 -0.254 2.676 -0.715 0.555 -0.461 0.832 -1.168 0.832 -2.129 l 0 -4.586 c 0 -1.551 0.512 -2.754 1.539 -3.617 1.023 -0.855 2.41 -1.285 4.145 -1.285 l 0 2.086 c -2.195 0.063 -3.285 1.051 -3.285 2.98 l 0 4.422 c 0 2.148 -1.066 3.414 -3.188 3.805 l 0 0.188 c 2.121 0.383 3.188 1.656 3.188 3.805 l 0 4.449" style="fill:#555;fill-opacity:1;stroke:none;fill-rule:nonzero"/>
 <path d="m 43.25 34.574 c -2.121 -0.391 -3.188 -1.656 -3.188 -3.805 l 0 -4.422 c 0 -1.93 -1.078 -2.918 -3.242 -2.98 l 0 -2.086 c 1.754 0 3.129 0.43 4.133 1.305 1 0.871 1.508 2.066 1.508 3.598 l 0 4.586 c 0 0.973 0.277 1.688 0.84 2.137 0.566 0.453 1.469 0.688 2.699 0.707 l 0 2.117 c -1.16 0 -2.043 0.227 -2.637 0.676 -0.605 0.441 -0.902 1.18 -0.902 2.219 l 0 4.539 c 0 1.527 -0.492 2.715 -1.465 3.566 -0.977 0.863 -2.359 1.305 -4.176 1.324 l 0 -2.098 c 1.055 -0.02 1.867 -0.266 2.422 -0.727 0.543 -0.461 0.82 -1.195 0.82 -2.215 l 0 -4.449 c 0 -1.137 0.266 -2.01 0.789 -2.609 0.523 -0.598 1.324 -1 2.398 -1.195 l 0 -0.188" style="fill:#555;fill-opacity:1;stroke:none;fill-rule:nonzero"/>
</svg>
